X: 36955
T: Showman's Fancy, The
R: hornpipe
M: 4/4
K: Dmajor
|:A^GAB Adfd|Bdgf edcB|A^GAB AFDE|FEED E2FG|
A^GAB Adfd|Bdgf edcB|Adfa gece|1 (3efe dc d2FG:|2 (3efe dc d2cd||
|:e^def gece|dcde fdA2|(3gag (3fgf (3efe (3ded|(3cdc (3BcB A2FG|
A^GAB Adfd|Bdgf edcB|Adfa gece|1 (3efe dc d2cd:|2 (3efe dc d2FG||

